!!!!SEGMENT: pl-kk--kk-i-83--001-005_anerio-giovanni-francesco--missa-pulchra-es-benedictus.krn
!!!cenid: 16xx:1344
!!!COM: Anerio, Giovanni Francesco
!!!COM-rismID: pe30000104
!!!CDT: 1569/07/07-1630/06/11
!!!CNT: Italian
!!!OPR: Missa pulchra es
!!!OTL: Benedictus
!!!OMV: 005
!!!PDT:
!!!AGN: Sacred; Mass
!!!SMS-siglum: PL-Kk
!!!SMS-shelfmark: Kk.I.83
!!!SMS-shelfwork: 001-005 M
!!!SMS-variant:
!!!SMS-altvar:
!!!NIFC-rismSourceID: 1001151647
!!!NIFC-rismChildID: 1001151647
!!!NIFC-islandoraID: pl-kk:2875
!!!URL-pdf-islandora: https://repozytorium.nifc.pl/islandora/object/pl-kk%3A2875/datastream/PDF/view
!!!URL-scan: https://polish.musicsources.pl/pl/lokalizacje/galeria/rekopisy/6143 @EN{Scan on Polish Music Sources Website} @PL{Skany w portalu Dziedzictwo Muzyki Polskiej w otwartym dostępie}
!!!IIIF:
!!!ONB-nifc: UWAGA: części Mszy: 1. Kyrie, 2. Et in terra, 3. Patrem, 4. Sanctus, 5. Benedictus, 6. Agnus Dei
!!!AIN: 2 alto 2 bass 2 soprn 2 tenor
!!!key:
**kern	**text	**kern	**text	**kern	**text	**kern	**text	**kern	**text	**kern	**text	**kern	**text	**kern	**text
*part8	*part8	*part7	*part7	*part6	*part6	*part5	*part5	*part4	*part4	*part3	*part3	*part2	*part2	*part1	*part1
*staff8	*	*staff7	*	*staff6	*staff6	*staff5	*staff5	*staff4	*	*staff3	*staff3	*staff2	*	*staff1	*staff1
*Ibass	*	*Itenor	*	*Ialto	*	*Isoprn	*	*Ibass	*	*Itenor	*	*Ialto	*	*Isoprn	*
*ICvox	*	*ICvox	*	*ICvox	*	*ICvox	*	*ICvox	*	*ICvox	*	*ICvox	*	*ICvox	*
*I"Baſsus II.	*	*I"Tenor 2	*	*I"Altus 2.	*	*I"Cantus 2.	*	*I"Baſsus I.	*	*I"Tenor I.	*	*I"Altus I.	*	*I"Cantus I.	*
*I'B 2	*	*I'T 2	*	*I'A 2	*	*I'S 2	*	*I'B 1	*	*I'T 1	*	*I'A 1	*	*I'S 1	*
*clefF4	*	*clefC4	*	*clefC3	*	*clefC1	*	*clefF4	*	*clefC4	*	*clefC3	*	*clefC1	*
*k[]	*	*k[]	*	*k[]	*	*k[]	*	*k[]	*	*k[]	*	*k[]	*	*k[]	*
*a:	*	*a:	*	*a:	*	*a:	*	*a:	*	*a:	*	*a:	*	*a:	*
*M2/1	*	*M2/1	*	*M2/1	*	*M2/1	*	*M2/1	*	*M2/1	*	*M2/1	*	*M2/1	*
*met(c|)	*	*met(c|)	*	*met(c|)	*	*met(c|)	*	*met(c|)	*	*met(c|)	*	*met(c|)	*	*met(c|)	*
*all\right	*	*all\right	*	*all\right	*	*all\right	*	*all\right	*	*all\right	*	*all\right	*	*all\right	*
*2\right	*	*2\right	*	*2\right	*	*2\right	*	*2\right	*	*2\right	*	*2\right	*	*2\right	*
=1-	=1-	=1-	=1-	=1-	=1-	=1-	=1-	=1-	=1-	=1-	=1-	=1-	=1-	=1-	=1-
!!LO:TX:t=P:problem:w części Osanna śpiewają wszystkie głosy, w Benedictus niekonsekwentny dobór partii z obydwu chórów
!LO:TX:a:t=Benedictus Tacet	!	!	!	!	!	!	!	!	!	!	!	!	!	!	!
!	!	!LO:TX:a:t=Benedictus\nTacet	!	!	!	!	!	!	!	!	!	!	!	!	!
!	!	!	!	!	!	!	!	!	!	!LO:TX:a:t=a 4	!	!	!	!	!
!	!	!	!	!LO:TX:a:t=a 4	!	!	!	!	!	!	!	!	!	!	!
!	!	!	!	!	!	!	!	!	!	!	!	!LO:TX:a:t=Benedictus\nTacet	!	!	!
!	!	!	!	!	!	!LO:TX:a:t=a 4	!	!	!	!	!	!	!	!	!
!	!	!	!	!	!	!	!	!	!	!	!	!	!	!LO:TX:a:t=a 4	!
0ryy	.	0ryy	.	2r	.	00r	.	0ryy	.	00r	.	0ryy	.	0e	Be-
.	.	.	.	2.A/	Be-	.	.	.	.	.	.	.	.	.	.
.	.	.	.	4B/	.	.	.	.	.	.	.	.	.	.	.
.	.	.	.	4c/	-ne-	.	.	.	.	.	.	.	.	.	.
!	!	!	!	!LO:TX:t=P:problem=kreska pseudotaktowa	!	!	!	!	!	!	!	!	!	!	!
.	.	.	.	4d/	.	.	.	.	.	.	.	.	.	.	.
!	!	!	!	!LO:LB:g=original	!	!	!	!	!	!	!	!	!	!	!
=2-	=2-	=2-	=2-	=2-	=2-	=2-	=2-	=2-	=2-	=2-	=2-	=2-	=2-	=2-	=2-
0ryy	.	0ryy	.	2e\	-di-	.	.	0ryy	.	.	.	0ryy	.	1g	-ne-
!	!	!	!	!LO:TX:t=P:problem=kreska pseudotaktowa	!	!	!	!	!	!	!	!	!	!	!
.	.	.	.	2e\	-ctus	.	.	.	.	.	.	.	.	.	.
.	.	.	.	2f\	.	.	.	.	.	.	.	.	.	2a\	-di-
.	.	.	.	4e\	.	.	.	.	.	.	.	.	.	1cc\	-ctus
!	!	!	!	!LO:TX:t=P:problem=kreska pseudotaktowa	!	!	!	!	!	!	!	!	!	!	!
.	.	.	.	4d\	.	.	.	.	.	.	.	.	.	.	.
=3-	=3-	=3-	=3-	=3-	=3-	=3-	=3-	=3-	=3-	=3-	=3-	=3-	=3-	=3-	=3-
!	!	!	!	!	!	!LO:TX:t=P:problem=kreska pseudotaktowa	!	!	!	!LO:TX:t=P:problem=kreska pseudotaktowa	!	!	!	!	!
0ryy	.	0ryy	.	4e\	.	0r	.	0ryy	.	0r	.	0ryy	.	.	.
.	.	.	.	4f\	.	.	.	.	.	.	.	.	.	.	.
!	!	!	!	!	!	!	!	!	!	!	!	!	!	!LO:TX:t=P:problem=kreska pseudotaktowa	!
.	.	.	.	4g\	.	.	.	.	.	.	.	.	.	2b\	qui
!	!	!	!	!LO:TX:t=P:problem=kreska pseudotaktowa	!	!	!	!	!	!	!	!	!	!	!
.	.	.	.	4e\	.	.	.	.	.	.	.	.	.	.	.
.	.	.	.	4f\	.	.	.	.	.	.	.	.	.	1.a	ve-
.	.	.	.	4e\	.	.	.	.	.	.	.	.	.	.	.
.	.	.	.	4d\	.	.	.	.	.	.	.	.	.	.	.
.	.	.	.	8c\L	.	.	.	.	.	.	.	.	.	.	.
!	!	!	!	!LO:TX:t=P:problem=kreska pseudotaktowa	!	!	!	!	!	!	!	!	!	!	!
.	.	.	.	8B\J	.	.	.	.	.	.	.	.	.	.	.
=4-	=4-	=4-	=4-	=4-	=4-	=4-	=4-	=4-	=4-	=4-	=4-	=4-	=4-	=4-	=4-
0ryy	.	0ryy	.	2c\	.	2r	.	0ryy	.	0E	Be-	0ryy	.	.	.
.	.	.	.	4B/	.	2.e/	Be-	.	.	.	.	.	.	4g/	.
!	!	!	!	!LO:TX:t=P:problem=kreska pseudotaktowa	!	!	!	!	!	!	!	!	!	!LO:TX:t=P:problem=kreska pseudotaktowa	!
.	.	.	.	4A/	.	.	.	.	.	.	.	.	.	4f/	.
.	.	.	.	2B/	.	.	.	.	.	.	.	.	.	0g	.
.	.	.	.	.	.	4f/	-ne-	.	.	.	.	.	.	.	.
.	.	.	.	1e\	.	4g\	-di-	.	.	.	.	.	.	.	.
.	.	.	.	.	.	4a\	.	.	.	.	.	.	.	.	.
=5-	=5-	=5-	=5-	=5-	=5-	=5-	=5-	=5-	=5-	=5-	=5-	=5-	=5-	=5-	=5-
!	!	!	!	!	!	!	!	!	!	!LO:TX:t=P:problem=kreska pseudotaktowa	!	!	!	!	!
0ryy	.	0ryy	.	.	.	2b\	.	0ryy	.	1G	-ne-	0ryy	.	.	.
!	!	!	!	!LO:TX:t=P:problem=kreska pseudotaktowa	!	!	!	!	!	!	!	!	!	!	!
.	.	.	.	2d\	qui	2b\	-ctus	.	.	.	.	.	.	.	.
.	.	.	.	2.c\	ve-	2cc\	qui	.	.	2A/	-di-	.	.	2f/	.
!	!	!	!	!	!	!LO:TX:t=P:problem=kreska pseudotaktowa	!	!	!	!	!	!	!	!	!
.	.	.	.	.	.	2g\	.	.	.	1c\	-ctus	.	.	4e/	.
!	!	!	!	!LO:TX:t=P:problem=kreska pseudotaktowa	!	!	!	!	!	!	!	!	!	!LO:TX:t=P:problem=kreska pseudotaktowa	!
.	.	.	.	4d\	.	.	.	.	.	.	.	.	.	4d/	.
=6-	=6-	=6-	=6-	=6-	=6-	=6-	=6-	=6-	=6-	=6-	=6-	=6-	=6-	=6-	=6-
0ryy	.	0ryy	.	4e\	.	2a\	ve-	0ryy	.	.	.	0ryy	.	2c/	.
.	.	.	.	4f\	.	.	.	.	.	.	.	.	.	.	.
!	!	!	!	!	!	!LO:TX:t=P:problem=kreska pseudotaktowa	!	!	!	!LO:TX:t=P:problem=kreska pseudotaktowa	!	!	!	!	!
.	.	.	.	1g	.	2b\	-nit	.	.	2B\	qui	.	.	2d/	.
.	.	.	.	.	.	1.cc	/Be-	.	.	1A	ve-	.	.	2e/	.
!	!	!	!	!LO:TX:t=P:problem=kreska pseudotaktowa	!	!	!	!	!	!	!	!	!	!LO:TX:t=P:problem=kreska pseudotaktowa	!
.	.	.	.	2f\	.	.	.	.	.	.	.	.	.	2c/	.
=7-	=7-	=7-	=7-	=7-	=7-	=7-	=7-	=7-	=7-	=7-	=7-	=7-	=7-	=7-	=7-
!	!	!	!	!	!	!	!	!	!	!LO:TX:t=P:problem=kreska pseudotaktowa	!	!	!	!LO:TX:t=P:problem=kreska pseudotaktowa	!
0ryy	.	0ryy	.	2e\	.	.	.	0ryy	.	1G	-nit	0ryy	.	1g	-nit
!	!	!	!	!	!	!LO:TX:t=P:problem=kreska pseudotaktowa	!	!	!	!	!	!	!	!	!
.	.	.	.	2d\	.	2b\	-ne-	.	.	.	.	.	.	.	.
.	.	.	.	2f\	.	1cc	-di-	.	.	2.A/	/Be-	.	.	2r	.
!	!	!	!	!LO:TX:t=P:problem=kreska pseudotaktowa	!	!	!	!	!	!	!	!	!	!	!
.	.	.	.	2e\	.	.	.	.	.	.	.	.	.	2.a\	/Be-
.	.	.	.	.	.	.	.	.	.	4G/	-ne-	.	.	.	.
=8-	=8-	=8-	=8-	=8-	=8-	=8-	=8-	=8-	=8-	=8-	=8-	=8-	=8-	=8-	=8-
0ryy	.	0ryy	.	1A	.	2cc\	.	0ryy	.	1F	-di-	0ryy	.	.	.
.	.	.	.	.	.	.	.	.	.	.	.	.	.	4b\	.
.	.	.	.	.	.	1a	-ctus	.	.	.	.	.	.	4cc\	-ne-
!	!	!	!	!	!	!	!	!	!	!	!	!	!	!LO:TX:t=P:problem=kreska pseudotaktowa	!
.	.	.	.	.	.	.	.	.	.	.	.	.	.	4dd\	.
!	!	!	!	!	!	!	!	!	!	!LO:TX:t=P:problem=kreska pseudotaktowa	!	!	!	!	!
.	.	.	.	2B/	.	.	.	.	.	1E	.	.	.	2ee\	-di-
!	!	!	!	!	!	!LO:TX:t=P:problem=kreska pseudotaktowa	!	!	!	!	!	!	!	!	!
.	.	.	.	1e\	.	2g#X\	qui	.	.	.	.	.	.	2b\	-ctus
=9-	=9-	=9-	=9-	=9-	=9-	=9-	=9-	=9-	=9-	=9-	=9-	=9-	=9-	=9-	=9-
0ryy	.	0ryy	.	.	.	1.a	ve-	0ryy	.	0A	-ctus	0ryy	.	2cc\	qui
!	!	!	!	!	!	!	!	!	!	!	!	!	!	!LO:TX:t=P:problem=kreska pseudotaktowa	!
.	.	.	.	1d	.	.	.	.	.	.	.	.	.	2dd\	ve-
.	.	.	.	.	.	.	.	.	.	.	.	.	.	2ee\	.
!	!	!	!	!LO:TX:t=P:problem=kreska pseudotaktowa	!	!LO:TX:t=P:problem=kreska pseudotaktowa	!	!	!	!	!	!	!	!	!
.	.	.	.	2c#X\	.	2e/	.	.	.	.	.	.	.	2.a\	.
!	!	!	!	!LO:LB:g=original	!	!	!	!	!	!	!	!	!	!	!
=10-	=10-	=10-	=10-	=10-	=10-	=10-	=10-	=10-	=10-	=10-	=10-	=10-	=10-	=10-	=10-
!	!	!	!	!LO:TX:t=P:problem=kreska pseudotaktowa	!	!	!	!	!	!	!	!	!	!	!
0ryy	.	0ryy	.	0d	-nit	2f/	.	0ryy	.	2r	.	0ryy	.	.	.
.	.	.	.	.	.	.	.	.	.	.	.	.	.	4g/	.
!	!	!	!	!	!	!LO:TX:t=P:problem=kreska pseudotaktowa	!	!	!	!	!	!	!	!	!
!	!	!	!	!	!	!LO:TX:t=P:problem=kropka po kresce	!	!	!	!	!	!	!	!	!
.	.	.	.	.	.	[2.a\	.	.	.	2.D/	Be-	.	.	4f/	.
.	.	.	.	.	.	.	.	.	.	.	.	.	.	4e/	.
!	!	!	!	!	!	!	!	!	!	!	!	!	!	!LO:LB:g=original	!
.	.	.	.	.	.	.	.	.	.	.	.	.	.	1.f	.
.	.	.	.	.	.	4g\	.	.	.	4E/	.	.	.	.	.
!	!	!	!	!	!	!	!	!	!	!LO:LB:g=original	!	!	!	!	!
.	.	.	.	.	.	4a\	.	.	.	4F/	.	.	.	.	.
!	!	!	!	!	!	!LO:TX:t=P:problem=kreska pseudotaktowa	!	!	!	!LO:TX:t=P:problem=kreska pseudotaktowa	!	!	!	!	!
.	.	.	.	.	.	4b\	.	.	.	4G/	-ne-	.	.	.	.
=11-	=11-	=11-	=11-	=11-	=11-	=11-	=11-	=11-	=11-	=11-	=11-	=11-	=11-	=11-	=11-
0ryy	.	0ryy	.	2r	.	2cc\	.	0ryy	.	1A	-di-	0ryy	.	.	.
!	!	!	!	!	!	!LO:LB:g=original	!	!	!	!	!	!	!	!	!
.	.	.	.	2.c\	/Be-	2.a\	.	.	.	.	.	.	.	4e/	.
!	!	!	!	!	!	!	!	!	!	!	!	!	!	!LO:TX:t=P:problem=kreska pseudotaktowa	!
.	.	.	.	.	.	.	.	.	.	.	.	.	.	4d/	.
.	.	.	.	.	.	.	.	.	.	1A	-ctus	.	.	2e/	.
.	.	.	.	4d\	.	4b\	.	.	.	.	.	.	.	.	.
.	.	.	.	4e\	ne-	4cc\	.	.	.	.	.	.	.	2c/	.
!	!	!	!	!LO:TX:t=P:problem=kreska pseudotaktowa	!	!LO:TX:t=P:problem=kreska pseudotaktowa	!	!	!	!	!	!	!	!	!
.	.	.	.	4f\	.	4a\	.	.	.	.	.	.	.	.	.
=12-	=12-	=12-	=12-	=12-	=12-	=12-	=12-	=12-	=12-	=12-	=12-	=12-	=12-	=12-	=12-
0ryy	.	0ryy	.	1g	-di-	2b\	.	0ryy	.	2G/	qui	0ryy	.	2d/	.
!	!	!	!	!	!	!	!	!	!	!LO:TX:t=P:problem=kreska pseudotaktowa	!	!	!	!LO:TX:t=P:problem=kreska pseudotaktowa	!
.	.	.	.	.	.	2.cc\	.	.	.	2E/	ve-	.	.	2e/	.
.	.	.	.	2a\	-ctus	.	.	.	.	4F/	.	.	.	2c/	.
.	.	.	.	.	.	4b\	.	.	.	4G/	.	.	.	.	.
!	!	!	!	!LO:TX:t=P:problem=kreska pseudotaktowa	!	!LO:TX:t=P:problem=kreska pseudotaktowa	!	!	!	!	!	!	!	!	!
.	.	.	.	2f\	qui	2a\	.	.	.	4A\	.	.	.	1cc\	.
!	!	!	!	!	!	!	!	!	!	!LO:TX:t=P:problem=kreska pseudotaktowa	!	!	!	!	!
.	.	.	.	.	.	.	.	.	.	4B\	.	.	.	.	.
=13-	=13-	=13-	=13-	=13-	=13-	=13-	=13-	=13-	=13-	=13-	=13-	=13-	=13-	=13-	=13-
0ryy	.	0ryy	.	(2e\	ve-	2.g/	.	0ryy	.	2c\	.	0ryy	.	.	.
.	.	.	.	2d\)	.	.	.	.	.	2G/	.	.	.	2.b\	.
.	.	.	.	.	.	4f/	.	.	.	.	.	.	.	.	.
!	!	!	!	!	!	!	!	!	!	!LO:TX:t=P:problem=kreska pseudotaktowa	!	!	!	!	!
.	.	.	.	2.c/	.	0e	.	.	.	1A	.	.	.	.	.
.	.	.	.	.	.	.	.	.	.	.	.	.	.	4a\	.
.	.	.	.	.	.	.	.	.	.	.	.	.	.	1a\	.
.	.	.	.	8B/L	.	.	.	.	.	.	.	.	.	.	.
!	!	!	!	!LO:TX:t=P:problem=kreska pseudotaktowa	!	!	!	!	!	!	!	!	!	!	!
.	.	.	.	8A/J	.	.	.	.	.	.	.	.	.	.	.
=14-	=14-	=14-	=14-	=14-	=14-	=14-	=14-	=14-	=14-	=14-	=14-	=14-	=14-	=14-	=14-
0ryy	.	0ryy	.	1B	.	.	.	0ryy	.	1E	nit/	0ryy	.	.	.
!	!	!	!	!	!	!	!	!	!	!	!	!	!	!LO:TX:t=P:problem=kreska pseudotaktowa	!
.	.	.	.	.	.	.	.	.	.	.	.	.	.	2g#X\	.
!	!	!	!	!LO:TX:t=P:problem=kreska pseudotaktowa	!	!	!	!	!	!	!	!	!	!	!
.	.	.	.	1A	-nit/	0e	-nit/	.	.	2r	.	.	.	2a\	-nit/
!	!	!	!	!	!	!	!	!	!	!LO:TX:t=P:problem=kreska pseudotaktowa	!	!	!	!	!
.	.	.	.	.	.	.	.	.	.	2A/	In	.	.	4r	.
!	!	!	!	!	!	!	!	!	!	!	!	!	!	!LO:TX:t=P:problem=kreska pseudotaktowa	!
.	.	.	.	.	.	.	.	.	.	.	.	.	.	4a\	in
=15-	=15-	=15-	=15-	=15-	=15-	=15-	=15-	=15-	=15-	=15-	=15-	=15-	=15-	=15-	=15-
!	!	!	!	!	!	!LO:TX:t=P:problem=kreska pseudotaktowa	!	!	!	!	!	!	!	!	!
0ryy	.	0ryy	.	2r	.	.	.	0ryy	.	2G#X/	no-	0ryy	.	2b\	No-
.	.	.	.	2e\	In	.	.	.	.	2A/	-mi-	.	.	2cc#X\	-mi-
.	.	.	.	2f\	no-	0r	.	.	.	2D/	-ne	.	.	2dd\	-ne
!	!	!	!	!LO:TX:t=P:problem=kreska pseudotaktowa	!	!	!	!	!	!LO:TX:t=P:problem=kreska pseudotaktowa	!	!	!	!	!
.	.	.	.	2e\	-mi-	.	.	.	.	2E/	Do-	.	.	4cc#\	.
!	!	!	!	!	!	!	!	!	!	!	!	!	!	!LO:TX:t=P:problem=kreska pseudotaktowa	!
.	.	.	.	.	.	.	.	.	.	.	.	.	.	4b\	.
=16-	=16-	=16-	=16-	=16-	=16-	=16-	=16-	=16-	=16-	=16-	=16-	=16-	=16-	=16-	=16-
0ryy	.	0ryy	.	2c\	-ne	.	.	0ryy	.	2.F/	.	0ryy	.	2a\	.
!	!	!	!	!LO:TX:t=P:problem=kreska pseudotaktowa	!	!	!	!	!	!	!	!	!	!	!
.	.	.	.	2d\	.	.	.	.	.	.	.	.	.	1a	Do-
.	.	.	.	.	.	.	.	.	.	4F/	-mi-	.	.	.	.
!	!	!	!	!	!	!LO:TX:t=P:problem=kreska pseudotaktowa	!	!	!	!LO:TX:t=P:problem=kreska pseudotaktowa	!	!	!	!	!
.	.	.	.	2.e\	Do-	1r	.	.	.	1E	-ni	.	.	.	.
.	.	.	.	.	.	.	.	.	.	.	.	.	.	2g#X/	-mi-
.	.	.	.	4e\	-mi-	.	.	.	.	.	.	.	.	.	.
=17-	=17-	=17-	=17-	=17-	=17-	=17-	=17-	=17-	=17-	=17-	=17-	=17-	=17-	=17-	=17-
!	!	!	!	!	!	!	!	!	!	!	!	!	!	!LO:TX:t=P:problem=kreska pseudotaktowa	!
0ryy	.	0ryy	.	2A/	-ni	2r	.	0ryy	.	2r	.	0ryy	.	1a	-ni
!	!	!	!	!LO:TX:t=P:problem=kreska pseudotaktowa	!	!LO:TX:t=P:problem=kreska pseudotaktowa	!	!	!	!	!	!	!	!	!
.	.	.	.	2c\	/In	2a\	In	.	.	2A\	/In	.	.	.	.
.	.	.	.	2d\	no-	2g#X\	no-	.	.	2B\	no-	.	.	0r	.
!	!	!	!	!LO:TX:t=P:problem=kreska pseudotaktowa	!	!LO:TX:t=P:problem=kreska pseudotaktowa	!	!	!	!LO:TX:t=P:problem=kreska pseudotaktowa	!	!	!	!	!
.	.	.	.	2e\	-mi-	2a\	-mi-	.	.	2c#X\	-mi-	.	.	.	.
=18-	=18-	=18-	=18-	=18-	=18-	=18-	=18-	=18-	=18-	=18-	=18-	=18-	=18-	=18-	=18-
0ryy	.	0ryy	.	2d\	-ne	2.f/	-ne	0ryy	.	2d\	-ne	0ryy	.	.	.
.	.	.	.	1d	Do-	.	.	.	.	2B-X\	Do-	.	.	.	.
.	.	.	.	.	.	8e/L	.	.	.	.	.	.	.	.	.
.	.	.	.	.	.	8d/J	.	.	.	.	.	.	.	.	.
.	.	.	.	.	.	1e	.	.	.	2.A/	.	.	.	1r	.
!	!	!	!	!LO:TX:t=P:problem=kreska pseudotaktowa	!	!	!	!	!	!	!	!	!	!	!
.	.	.	.	2c#X\	-mi-	.	.	.	.	.	.	.	.	.	.
!	!	!	!	!	!	!	!	!	!	!LO:TX:t=P:problem=kreska pseudotaktowa	!	!	!	!	!
.	.	.	.	.	.	.	.	.	.	4A/	-mi-	.	.	.	.
=19-	=19-	=19-	=19-	=19-	=19-	=19-	=19-	=19-	=19-	=19-	=19-	=19-	=19-	=19-	=19-
!	!	!	!	!	!	!LO:TX:t=P:problem=kreska pseudotaktowa	!	!	!	!	!	!	!	!	!
0ryy	.	0ryy	.	2d\	-ni	1f#X	.	0ryy	.	1D	-ni	0ryy	.	2r	.
!	!	!	!	!	!	!	!	!	!	!	!	!	!	!LO:TX:t=P:problem=kreska pseudotaktowa	!
.	.	.	.	4r	.	.	.	.	.	.	.	.	.	2dd\	In
!	!	!	!	!LO:TX:t=P:problem=kreska pseudotaktowa	!	!	!	!	!	!	!	!	!	!	!
.	.	.	.	4d\	In	.	.	.	.	.	.	.	.	.	.
!	!	!	!	!LO:LB:g=original	!	!	!	!	!	!	!	!	!	!	!
!	!	!	!	!	!	!	!	!	!	!LO:LB:g=original	!	!	!	!	!
.	.	.	.	2e\	no-	2g\	Do-	.	.	0r	.	.	.	2cc#X\	No-
!	!	!	!	!	!	!	!	!	!	!	!	!	!	!LO:TX:t=P:problem=kreska pseudotaktowa	!
.	.	.	.	2f#X\	-mi-	2.a\	.	.	.	.	.	.	.	2dd\	.
=20-	=20-	=20-	=20-	=20-	=20-	=20-	=20-	=20-	=20-	=20-	=20-	=20-	=20-	=20-	=20-
0ryy	.	0ryy	.	2g\	-ne	.	.	0ryy	.	.	.	0ryy	.	2.b\	-mi-
.	.	.	.	.	.	4g\	.	.	.	.	.	.	.	.	.
!	!	!	!	!LO:TX:t=P:problem=kreska pseudotaktowa	!	!	!	!	!	!	!	!	!	!	!
.	.	.	.	2e\	.	1g	.	.	.	.	.	.	.	.	.
.	.	.	.	.	.	.	.	.	.	.	.	.	.	8a\L	.
.	.	.	.	.	.	.	.	.	.	.	.	.	.	8g\J	.
!	!	!	!	!	!	!	!	!	!	!LO:TX:t=P:problem=kreska pseudotaktowa	!	!	!	!LO:TX:t=P:problem=kreska pseudotaktowa	!
.	.	.	.	2.d\	Do-	.	.	.	.	1r	.	.	.	1a	-ne
!	!	!	!	!	!	!LO:TX:t=P:problem=kreska pseudotaktowa	!	!	!	!	!	!	!	!	!
.	.	.	.	.	.	2f#X/	-mi-	.	.	.	.	.	.	.	.
.	.	.	.	4d\	-mi-	.	.	.	.	.	.	.	.	.	.
=21-	=21-	=21-	=21-	=21-	=21-	=21-	=21-	=21-	=21-	=21-	=21-	=21-	=21-	=21-	=21-
!	!	!	!	!	!	!LO:TX:t=P:problem=kreska pseudotaktowa	!	!	!	!	!	!	!	!	!
!	!	!	!	!	!	!	!	!	!	!	!	!	!	!LO:LB:g=original	!
0ryy	.	0ryy	.	2G/	-ni	1g	-ni	0ryy	.	2r	.	0ryy	.	2r	.
!	!	!	!	!LO:TX:t=P:problem=kreska pseudotaktowa	!	!	!	!	!	!	!	!	!	!LO:TX:t=P:problem=kreska pseudotaktowa	!
.	.	.	.	2B/	In	.	.	.	.	2G/	In	.	.	2g/	/In
!	!	!	!	!	!	!LO:LB:g=original	!	!	!	!	!	!	!	!	!
.	.	.	.	2c/	no-	0r	.	.	.	2A\	no-	.	.	2f#X/	No-
!	!	!	!	!	!	!	!	!	!	!	!	!	!	!LO:TX:t=P:problem=kreska pseudotaktowa	!
.	.	.	.	2.d\	.	.	.	.	.	2B\	-mi-	.	.	2g/	.
=22-	=22-	=22-	=22-	=22-	=22-	=22-	=22-	=22-	=22-	=22-	=22-	=22-	=22-	=22-	=22-
0ryy	.	0ryy	.	.	.	.	.	0ryy	.	2c\	-ne	0ryy	.	2.e/	-mi-
.	.	.	.	4c/	-mi-	.	.	.	.	.	.	.	.	.	.
.	.	.	.	1c	-ne	.	.	.	.	2A/	Do-	.	.	.	.
.	.	.	.	.	.	.	.	.	.	.	.	.	.	8d/L	.
.	.	.	.	.	.	.	.	.	.	.	.	.	.	8c/J	.
!	!	!	!	!	!	!LO:TX:t=P:problem=kreska pseudotaktowa	!	!	!	!	!	!	!	!	!
*	*	*	*	*	*	*	*	*	*	*	*	*	*	*lig	*
.	.	.	.	.	.	1r	.	.	.	2.G/	.	.	.	1d	-ne
!	!	!	!	!LO:TX:t=P:problem=kreska pseudotaktowa	!	!	!	!	!	!	!	!	!	!	!
.	.	.	.	2B/	Do-	.	.	.	.	.	.	.	.	.	.
!	!	!	!	!	!	!	!	!	!	!LO:TX:t=P:problem=kreska pseudotaktowa	!	!	!	!	!
.	.	.	.	.	.	.	.	.	.	4G/	-mi-	.	.	.	.
=23-	=23-	=23-	=23-	=23-	=23-	=23-	=23-	=23-	=23-	=23-	=23-	=23-	=23-	=23-	=23-
!	!	!	!	!	!	!	!	!	!	!	!	!	!	!LO:TX:t=P:problem=kreska pseudotaktowa	!
0ryy	.	0ryy	.	4c\	.	2r	.	0ryy	.	2C/	-ni	0ryy	.	1e	.
.	.	.	.	4d\	.	.	.	.	.	.	.	.	.	.	.
.	.	.	.	4e\	.	2ee\	/In	.	.	2c\	In	.	.	.	.
.	.	.	.	4f\	-mi-	.	.	.	.	.	.	.	.	.	.
!	!	!	!	!	!	!	!	!	!	!LO:TX:t=P:problem=kreska pseudotaktowa	!	!	!	!	!
*	*	*	*	*	*	*	*	*	*	*	*	*	*	*Xlig	*
!	!	!	!	!LO:TX:t=P:problem=kreska pseudotaktowa	!	!	!	!	!	!	!	!	!	!	!
.	.	.	.	1g	-ni	2dd\	no-	.	.	2B\	no-	.	.	2r	.
!	!	!	!	!	!	!LO:TX:t=P:problem=kreska pseudotaktowa	!	!	!	!	!	!	!	!	!
.	.	.	.	.	.	2ee\	-mi-	.	.	2c\	-mi-	.	.	2g/	In
=24-	=24-	=24-	=24-	=24-	=24-	=24-	=24-	=24-	=24-	=24-	=24-	=24-	=24-	=24-	=24-
*	*	*	*	*	*	*	*	*	*	*lig	*	*	*	*	*
0ryy	.	0ryy	.	2r	.	2cc\	-ne	0ryy	.	1A	-ne	0ryy	.	2g/	No-
!	!	!	!	!	!	!	!	!	!	!	!	!	!	!LO:TX:t=P:problem=kreska pseudotaktowa	!
.	.	.	.	2c\	In	1cc	Do-	.	.	.	.	.	.	2f#X/	-mi-
!	!	!	!	!	!	!	!	!	!	!LO:TX:t=P:problem=kreska pseudotaktowa	!	!	!	!	!
.	.	.	.	2d\	no-	.	.	.	.	1G	.	.	.	1g	-ne/
!	!	!	!	!LO:TX:t=P:problem=kreska pseudotaktowa	!	!LO:TX:t=P:problem=kreska pseudotaktowa	!	!	!	!	!	!	!	!	!
.	.	.	.	2e\	-mi-	2b\	.	.	.	.	.	.	.	.	.
*	*	*	*	*	*	*	*	*	*	*Xlig	*	*	*	*	*
=25-	=25-	=25-	=25-	=25-	=25-	=25-	=25-	=25-	=25-	=25-	=25-	=25-	=25-	=25-	=25-
0ryy	.	0ryy	.	2c/	-ne	2.cc\	.	0ryy	.	2.A/	Do-	0ryy	.	4f/	Do-
.	.	.	.	.	.	.	.	.	.	.	.	.	.	4e/	.
.	.	.	.	2.c/	Do-	.	.	.	.	.	.	.	.	1e	.
!	!	!	!	!	!	!LO:TX:t=P:problem=kreska pseudotaktowa	!	!	!	!	!	!	!	!	!
.	.	.	.	.	.	4b\	.	.	.	4G/	.	.	.	.	.
.	.	.	.	.	.	1.a	.	.	.	1.F	.	.	.	.	.
.	.	.	.	4B/	.	.	.	.	.	.	.	.	.	.	.
.	.	.	.	4A/	.	.	.	.	.	.	.	.	.	4d/	.
!	!	!	!	!	!	!	!	!	!	!	!	!	!	!LO:TX:t=P:problem=kreska pseudotaktowa	!
.	.	.	.	4G/	.	.	.	.	.	.	.	.	.	4c/	.
=26-	=26-	=26-	=26-	=26-	=26-	=26-	=26-	=26-	=26-	=26-	=26-	=26-	=26-	=26-	=26-
0ryy	.	0ryy	.	2A/	.	.	.	0ryy	.	.	.	0ryy	.	2d/	.
!	!	!	!	!	!	!	!	!	!	!LO:TX:t=P:problem=kreska pseudotaktowa	!	!	!	!	!
.	.	.	.	2A/	-mi-	2a\	-mi-	.	.	2F/	-mi-	.	.	2d/	-mi-
!	!	!	!	!	!	!LO:N:vis=0	!	!	!	!LO:N:vis=0	!	!	!	!	!
.	.	.	.	1B	-ni/	1g#X	-ni/	.	.	1E	-ni/	.	.	1e	-ni
!	!	!	!	!LO:LB:g=original	!	!	!	!	!	!	!	!	!	!	!
=27|-|-	=27|-|-	=27|-|-	=27|-|-	=27|-|-	=27|-|-	=27|-|-	=27|-|-	=27|-|-	=27|-|-	=27|-|-	=27|-|-	=27|-|-	=27|-|-	=27|-|-	=27|-|-
*M2/1	*	*M2/1	*	*M2/1	*	*M2/1	*	*M2/1	*	*M2/1	*	*M2/1	*	*M2/1	*
*met(c|)	*	*met(c|)	*	*met(c|)	*	*met(c|)	*	*met(c|)	*	*met(c|)	*	*met(c|)	*	*met(c|)	*
!	!	!LO:TX:t=P:problem=kreska pseudotaktowa	!	!	!	!	!	!	!	!LO:PB:g=original	!	!	!	!	!
0r	.	0r	.	0r	.	0r	.	2E	O-	2G#X/	O-	2e	O-	2b\	O-
!	!	!	!	!	!	!	!	!LO:TX:t=P:problem=kreska pseudotaktowa	!	!LO:TX:t=P:problem=kreska pseudotaktowa	!	!LO:TX:t=P:problem=kreska pseudotaktowa	!	!LO:TX:t=P:problem=kreska pseudotaktowa	!
.	.	.	.	.	.	.	.	2A	-ſan-	2A\	-ſan-	2e	-ſan-	2cc\	-ſan-
.	.	.	.	.	.	.	.	4G	-na	4B\	-na	4e	-na	4b\	-na
.	.	.	.	.	.	.	.	2F	in	2c\	in	2f	in	2a\	in
!	!	!	!	!	!	!	!	!LO:TX:t=P:problem=kreska pseudotaktowa	!	!LO:TX:t=P:problem=kreska pseudotaktowa	!	!LO:TX:t=P:problem=kreska pseudotaktowa	!	!LO:TX:t=P:problem=kreska pseudotaktowa	!
.	.	.	.	.	.	.	.	4D	ex-	4d\	ex-	4f	ex-	4a\	ex-
=28-	=28-	=28-	=28-	=28-	=28-	=28-	=28-	=28-	=28-	=28-	=28-	=28-	=28-	=28-	=28-
2E	O-	2G#	O-	2e\	O-	2b\	O-	2E	-cel-	2B\	-cel-	2e	-cel-	2g#X/	-cel-
!LO:TX:t=P:problem=kreska pseudotaktowa	!	!	!	!LO:TX:t=P:problem=kreska pseudotaktowa	!	!LO:TX:t=P:problem=kreska pseudotaktowa	!	!LO:TX:t=P:problem=kreska pseudotaktowa	!	!LO:TX:t=P:problem=kreska pseudotaktowa	!	!LO:TX:t=P:problem=kreska pseudotaktowa	!	!LO:TX:t=P:problem=kreska pseudotaktowa	!
2A	-ſan-	2A/	-ſan-	2e\	-ſan-	2cc\	-ſan-	2AA	-ſis	2A/	-ſis	2c	-ſis	2e/	-ſis
4G	-na	4B	-na	4e\	-na	4b\	-na	1r	.	1r	.	1r	.	1r	.
2F	in	2c	in	2f\	in	2a\	in	.	.	.	.	.	.	.	.
!LO:TX:t=P:problem=kreska pseudotaktowa	!	!LO:TX:t=P:problem=kreska pseudotaktowa	!	!	!	!LO:TX:t=P:problem=kreska pseudotaktowa	!	!	!	!	!	!	!	!	!
4E	ex-	4e	ex-	4g\	ex-	4cc\	ex-	.	.	.	.	.	.	.	.
=29-	=29-	=29-	=29-	=29-	=29-	=29-	=29-	=29-	=29-	=29-	=29-	=29-	=29-	=29-	=29-
*	*	*	*	*	*	*	*	*	*ij	*	*ij	*	*ij	*	*ij
2G	-cel-	2d	-cel-	2g\	-cel-	2b\	-cel-	2G	O-	2d\	O-	2g	O-	2b\	O-
!LO:TX:t=P:problem=kreska pseudotaktowa	!	!LO:TX:t=P:problem=kreska pseudotaktowa	!	!LO:TX:t=P:problem=kreska pseudotaktowa	!	!LO:TX:t=P:problem=kreska pseudotaktowa	!	!LO:TX:t=P:problem=kreska pseudotaktowa	!	!LO:TX:t=P:problem=kreska pseudotaktowa	!	!LO:TX:t=P:problem=kreska pseudotaktowa	!	!LO:TX:t=P:problem=kreska pseudotaktowa	!
2C	-ſis	2c	-ſis	2e\	-ſis	2e/	-ſis	2c	-ſan-	2e\	-ſan-	2g	-ſan-	2cc\	-ſan-
!	!	!	!	!	!	!	!	!	!	!	!	!	!	!LO:LB:g=original	!
1r	.	1r	.	1r	.	1r	.	4F	-na	4f\	-na	4a	-na	4cc\	-na
.	.	.	.	.	.	.	.	2G	in	2d\	in	2g	in	2b-X\	in
!	!	!	!	!	!	!	!	!LO:TX:t=P:problem=kreska pseudotaktowa	!	!LO:TX:t=P:problem=kreska pseudotaktowa	!	!LO:TX:t=P:problem=kreska pseudotaktowa	!	!LO:TX:t=P:problem=kreska pseudotaktowa	!
.	.	.	.	.	.	.	.	4B-	ex-	4d\	ex-	4d	ex-	4g\	ex-
=30-	=30-	=30-	=30-	=30-	=30-	=30-	=30-	=30-	=30-	=30-	=30-	=30-	=30-	=30-	=30-
2r	.	2r	.	2r	.	4r	.	2A	-cel-	2c#X\	-cel-	2e	-cel-	2a\	-cel-
*	*	*	*	*	*	*	*ij	*	*	*	*	*	*	*	*
.	.	.	.	.	.	2a\	O-	.	.	.	.	.	.	.	.
*	*ij	*	*ij	*	*ij	*	*	*	*	*	*	*	*	*	*
!LO:TX:t=P:problem=kreska pseudotaktowa	!	!LO:TX:t=P:problem=kreska pseudotaktowa	!	!LO:TX:t=P:problem=kreska pseudotaktowa	!	!	!	!LO:TX:t=P:problem=kreska pseudotaktowa	!	!LO:TX:t=P:problem=kreska pseudotaktowa	!	!	!	!LO:TX:t=P:problem=kreska pseudotaktowa	!
2D	O-	2A	O-	2f#X\	O-	.	.	2D/	-ſis	2d\	-ſis	2f#	-ſis	2a\	-ſis
!	!	!	!	!	!	!LO:TX:t=P:problem=kreska pseudotaktowa	!	!	!	!	!	!	!	!	!
!	!	!	!	!	!	!LO:N:vis=4.	!	!	!	!	!	!LO:TX:t=P:problem=kreska pseudotaktowa	!	!	!
.	.	.	.	.	.	2dd\	-ſan-	.	.	.	.	.	.	.	.
2G	-ſan-	4B	.	4g\	.	.	.	1r	.	1r	.	1r	.	1r	.
.	.	4G	-ſan-	2d\	-ſan-	8ryy	.	.	.	.	.	.	.	.	.
.	.	.	.	.	.	8cc\	.	.	.	.	.	.	.	.	.
4F	-na	4A	.	.	.	4b\	.	.	.	.	.	.	.	.	.
!	!	!LO:TX:t=P:problem=przekreślona synkopowana wartość	!	!	!	!LO:TX:t=P:problem=kreska pseudotaktowa	!	!	!	!	!	!	!	!	!
2E	in	2B	-na	2e\	-na	4a\	-na	.	.	.	.	.	.	.	.
.	.	.	.	.	.	.	.	.	.	.	.	.	.	.	.
!	!	!	!	!	!	!LO:LB:g=original	!	!	!	!	!	!	!	!	!
=31-	=31-	=31-	=31-	=31-	=31-	=31-	=31-	=31-	=31-	=31-	=31-	=31-	=31-	=31-	=31-
.	.	.	.	.	.	4g/	in	2r	.	2r	.	2r	.	2r	.
.	.	.	.	.	.	.	.	.	.	.	.	.	.	.	.
4C	ex-	8cL	in	4e\	in	4g/	ex-	.	.	.	.	.	.	.	.
.	.	8B	.	.	.	.	.	.	.	.	.	.	.	.	.
!LO:TX:t=P:problem=kreska pseudotaktowa	!	!	!	!LO:TX:t=P:problem=kreska pseudotaktowa	!	!LO:TX:t=P:problem=kreska pseudotaktowa	!	!LO:TX:t=P:problem=kreska pseudotaktowa	!	!LO:TX:t=P:problem=kreska pseudotaktowa	!	!LO:TX:t=P:problem=kreska pseudotaktowa	!	!LO:TX:t=P:problem=kreska pseudotaktowa	!
2D/	-cel-	8A	.	2d\	ex-	2f#X/	-cel-	2D/	O-	2A/	O-	2d	O-	2dd\	O-
.	.	8GJ	.	.	.	.	.	.	.	.	.	.	.	.	.
!	!	!LO:TX:t=P:problem=kreska pseudotaktowa	!	!	!	!	!	!	!	!	!	!	!	!	!
.	.	4A	.	.	.	.	.	.	.	.	.	.	.	.	.
2GG	-ſis	4G	ex-	2d\	-cel-	2g/	-sis	2.G	-ſan-	2B\	-ſan-	2d	-ſan-	2dd\	-ſan-
.	.	2D	-cel-	.	.	.	.	.	.	.	.	.	.	.	.
!LO:TX:t=P:problem=kreska pseudotaktowa	!	!	!	!LO:TX:t=P:problem=kreska pseudotaktowa	!	!LO:TX:t=P:problem=kreska pseudotaktowa	!	!	!	!LO:TX:t=P:problem=kreska pseudotaktowa	!	!LO:TX:t=P:problem=kreska pseudotaktowa	!	!LO:TX:t=P:problem=kreska pseudotaktowa	!
2GG	O-	.	.	2d\	-sis	2b\	O-	.	.	2B\	-na	2g	-na	2dd\	-na
.	.	2G	.	.	.	.	.	4G	-na	.	.	.	.	.	.
!	!	!	!	!	!	!	!	!	!	!	!	!LO:LB:g=original	!	!	!
=32-	=32-	=32-	=32-	=32-	=32-	=32-	=32-	=32-	=32-	=32-	=32-	=32-	=32-	=32-	=32-
4.C	-ſan-	.	.	4c/	O-	4.cc\	-ſan-	2E	in	4G/	in	2g	in	2ee\	in
.	.	4E	-ſis	4.e\	-ſan-	.	.	.	.	4G/	ex-	.	.	.	.
8C	-na	.	.	.	.	8cc\	-na	.	.	.	.	.	.	.	.
!	!	!	!	!	!	!	!	!LO:TX:t=P:problem=kreska pseudotaktowa	!	!LO:TX:t=P:problem=kreska pseudotaktowa	!	!LO:TX:t=P:problem=kreska pseudotaktowa	!	!	!
4C	in	4E	in	.	.	4cc\	in	2C	ex-	2G/	-cel-	2g	ex-	2ee\	ex-
.	.	.	.	8d\	.	.	.	.	.	.	.	.	.	.	.
!LO:TX:t=P:problem=kreska pseudotaktowa	!	!LO:TX:t=P:problem=kreska pseudotaktowa	!	!LO:TX:t=P:problem=kreska pseudotaktowa	!	!LO:TX:t=P:problem=kreska pseudotaktowa	!	!	!	!	!	!	!	!	!
4C	ex-	4E	ex-	4c\	-na	4cc\	ex-	.	.	.	.	.	.	.	.
!	!	!LO:LB:g=original	!	!	!	!	!	!	!	!	!	!	!	!	!
2GG	-cel-	2G	-cel-	4d\	in	2b\	-cel-	2G	-cel-	2B\	-ſis	2g	-cel-	2dd\	-cel-
.	.	.	.	4g\	ex-	.	.	.	.	.	.	.	.	.	.
!LO:TX:t=P:problem=kreska pseudotaktowa	!	!LO:TX:t=P:problem=kreska pseudotaktowa	!	!LO:TX:t=P:problem=kreska pseudotaktowa	!	!LO:TX:t=P:problem=kreska pseudotaktowa	!	!	!	!	!	!	!	!	!
2C	-ſis	2G	-ſis	2e\	-cel-	2cc\	-ſis	4C	-ſis	4r	.	4g	-ſis	4ee\	-ſis
!	!	!	!	!	!	!	!	!	!	!LO:TX:t=P:problem=kreska pseudotaktowa	!	!LO:TX:t=P:problem=kreska pseudotaktowa	!	!LO:TX:t=P:problem=kreska pseudotaktowa	!
.	.	.	.	.	.	.	.	4C	O-	4c\	O-	4g	O-	4ee\	O-
!	!	!	!	!	!	!	!	!	!	!LO:LB:g=original	!	!	!	!	!
=33-	=33-	=33-	=33-	=33-	=33-	=33-	=33-	=33-	=33-	=33-	=33-	=33-	=33-	=33-	=33-
2C	O-	2G	O-	2e\	-ſis	2cc\	O-	2E	-ſan-	4c\	-ſan-	2g	-ſan-	2ee\	-ſan-
.	.	.	.	.	.	.	.	.	.	4c\	-na	.	.	.	.
!LO:LB:g=original	!	!	!	!	!	!	!	!LO:TX:t=P:problem=kreska pseudotaktowa	!	!	!	!LO:TX:t=P:problem=kreska pseudotaktowa	!	!	!
4.GG	-ſan-	4.G	-ſan-	4r	.	4.b\	-ſan-	2G	-na	4d\	in	2g	-na	2dd\	-na
!	!	!	!	!	!	!	!	!	!	!LO:TX:t=P:problem=kreska pseudotaktowa	!	!	!	!	!
.	.	.	.	2d\	in	.	.	.	.	4B\	ex-	.	.	.	.
!LO:TX:t=P:problem=kreska pseudotaktowa	!	!LO:TX:t=P:problem=kreska pseudotaktowa	!	!	!	!LO:TX:t=P:problem=kreska pseudotaktowa	!	!	!	!	!	!	!	!	!
8GG	-na	8G	-na	.	.	8b\	-na	.	.	.	.	.	.	.	.
4D/	in	4A	in	.	.	4a\	in	4D	in	8c\L	-cel-	4f	in	4dd\	in
.	.	.	.	.	.	.	.	.	.	8A\	.	.	.	.	.
4AA	ex-	4A	ex-	4e\	ex-	4a\	ex-	4A	ex-	8c\	.	4e	ex-	4cc\	ex-
.	.	.	.	.	.	.	.	.	.	8d\J	.	.	.	.	.
!LO:TX:t=P:problem=kreska pseudotaktowa	!	!	!	!LO:TX:t=P:problem=kreska pseudotaktowa	!	!LO:TX:t=P:problem=kreska pseudotaktowa	!	!LO:TX:t=P:problem=kreska pseudotaktowa	!	!	!	!LO:TX:t=P:problem=kreska pseudotaktowa	!	!LO:TX:t=P:problem=kreska pseudotaktowa	!
2E	-cel-	4B	-cel-	2e\	-cel-	2g#X\	-cel-	2E	-cel-	4e\	.	2e	-cel-	2b\	-cel-
!	!	!LO:TX:t=P:problem=kreska pseudotaktowa	!	!	!	!	!	!	!	!LO:TX:t=P:problem=kreska pseudotaktowa	!	!	!	!	!
.	.	4E	.	.	.	.	.	.	.	4B\	.	.	.	.	.
=34-	=34-	=34-	=34-	=34-	=34-	=34-	=34-	=34-	=34-	=34-	=34-	=34-	=34-	=34-	=34-
2AA	-ſis	2E	-ſis	2c/	-ſis	2a\	-ſis	2A	-ſis	2A/	-ſis	2e	-ſis	2cc\	-ſis
!LO:TX:t=P:problem=kreska pseudotaktowa	!	!LO:TX:t=P:problem=kreska pseudotaktowa	!	!LO:TX:t=P:problem=kreska pseudotaktowa	!	!LO:TX:t=P:problem=kreska pseudotaktowa	!	!LO:TX:t=P:problem=kreska pseudotaktowa	!	!LO:TX:t=P:problem=kreska pseudotaktowa	!	!	!	!LO:TX:t=P:problem=kreska pseudotaktowa	!
2AA	O-	2E	O-	2c/	o-	2a\	O-	2A	O-	2A/	O-	2e	O-	2cc\	O-
!	!	!	!	!LO:LB:g=original	!	!	!	!LO:LB:g=original	!	!	!	!	!	!	!
4.E	-ſan-	4.E	-ſan-	4.B/	-ſan-	4.b\	-ſan-	4.E	-ſan-	4.G#X/	-ſan-	4.e	-ſan-	4.ee\	-ſan-
8E	-na	8E	-na	8B/	-na	8b\	-na	8E	-na	8G#/	-na	8e	-na	8ee\	-na
4E	in	4E	in	4B/	in	4b\	in	4E	in	4G#/	in	4e	in	4ee\	in
!LO:TX:t=P:problem=kreska pseudotaktowa	!	!LO:TX:t=P:problem=kreska pseudotaktowa	!	!LO:TX:t=P:problem=kreska pseudotaktowa	!	!LO:TX:t=P:problem=kreska pseudotaktowa	!	!LO:TX:t=P:problem=kreska pseudotaktowa	!	!LO:TX:t=P:problem=kreska pseudotaktowa	!	!LO:TX:t=P:problem=kreska pseudotaktowa	!	!LO:TX:t=P:problem=kreska pseudotaktowa	!
4E	ex-	4E	ex-	4B/	ex-	4b\	ex-	4E	ex-	4G#/	ex-	4e	ex-	4ee\	ex-
=35-	=35-	=35-	=35-	=35-	=35-	=35-	=35-	=35-	=35-	=35-	=35-	=35-	=35-	=35-	=35-
*	*	*	*	*	*	*	*	*lig	*	*	*	*	*	*	*
0AA	-cel-	0E	-cel-	1.c	-cel-	0a	-cel-	1A	-cel-	1.A	-cel-	0e	-cel-	0cc	-cel-
.	.	.	.	.	.	.	.	1AA	.	.	.	.	.	.	.
*	*	*	*	*	*	*	*	*Xlig	*	*	*	*	*	*	*
.	.	.	.	2A/	.	.	.	.	.	2E/	.	.	.	.	.
=36-	=36-	=36-	=36-	=36-	=36-	=36-	=36-	=36-	=36-	=36-	=36-	=36-	=36-	=36-	=36-
!	!	!	!	!	!	!	!	!	!	!LO:TX:t=P:problem=♯ above	!	!	!	!	!
0EE	-ſis	0E	-ſis	0B	-ſis	0g#X	-ſis	0E	-ſis	0G#X	-ſis	0e	-ſis	0b	-ſis
*	*Xij	*	*Xij	*	*Xij	*	*Xij	*	*Xij	*	*Xij	*	*Xij	*	*Xij
=-	=-	=-	=-	=-	=-	=-	=-	=-	=-	=-	=-	=-	=-	=-	=-
*-	*-	*-	*-	*-	*-	*-	*-	*-	*-	*-	*-	*-	*-	*-	*-
!!!system-decoration: [(s1,s2,s3,s4)][(s5,s6,s7,s8)]
!!!ENC: Kamil Watkowski
!!!END: 2021-08-09
!!!YEC: Copyright 2022 Narodowy Instytut Fryderyka Chopina (https://polishscores.org)
!!!YEM: License CC-BY-4.0 (https://creativecommons.org/licenses/by/4.0)
